X:1
T:Theodora (Legge), 99.99
T:Theodora (Legge), 99.99
T:Alfred Legge, 1886
T:Public Domain Courtesy of the Cyber Hymnal™
C:Alfred Legge, 1886
Z:Public Domain
Z:Courtesy of the Cyber Hymnal™
%%score ( 1 2 ) ( 3 4 )
L:1/8
Q:1/4=125
M:3/4
K:E
V:1 treble 
V:2 treble 
V:3 bass 
V:4 bass 
V:1
 E2 [EF]2 [EG]2 | [EA]4 [EG]2 | [EF]2 [EG]2 [DA]2 | [EG]6 | [EB]2 [DB]2 E2 | [Ec]4 [EB]2 | %6
 [Fd]2 [Fc]2 [EF]2 | [DB]6 | [DF]2 [DG]2 [DF]2 | [DF]4 E2 | [EA]2 [EG]2 [DF]2 | [EB]6 | %12
 [Ee]2 [Ed]2 [Ec]2 | B2 z [EG]2 x | [CF]2 [B,E]2 [B,D]2 | [B,E]6 |] %16
V:2
 E2 x4 | x6 | x6 | x6 | x4 E2 | x6 | x6 | x6 | x6 | x4 E2 | x6 | x6 | x6 | E3 (A2 D) | x6 | x6 |] %16
V:3
 [E,G,]2 [E,A,]2 [E,B,]2 | [E,C]4 [E,B,]2 | [A,,C]2 [B,,B,]2 [B,,B,]2 | [E,B,]6 | %4
 [E,G,]2 [F,A,]2 [G,B,]2 | A,4 [G,B,]2 | [F,B,]2 [F,^A,]2 [F,A,]2 | [B,,B,]6 | %8
 [B,,A,]2 [B,,B,]2 [B,,A,]2 | [E,A,]4 [E,G,]2 | [C,A,]2 [B,,B,]2 [A,,B,]2 | [G,,B,]6 | %12
 [G,B,]2 [G,B,]2 A,2 | B,4 [E,B,]2 | [A,,A,]2 [B,,G,]2 [B,,F,]2 | [E,G,]6 |] %16
V:4
 x6 | x6 | x6 | x6 | x6 | A,4 x2 | x6 | x6 | x6 | x6 | x6 | x6 | x4 A,2 | G,2 F,2 x2 | x6 | x6 |] %16

